X:1
T:Étude Op. 10 No. 4 in C♯ minor
T:Étude Op. 10 No. 4 in C♯ minor
T:"Torrent"
T:Frédéric Chopin
C:Frédéric Chopin
%%score { ( 1 2 ) | ( 3 4 ) }
L:1/8
Q:1/2=88
M:4/4
K:E
V:1 treble nm="鋼琴" snm="Pno."
V:2 treble 
V:3 bass 
V:4 bass 
V:1
"^Presto"!f! (g/"_con fuoco"f/e/d/ | !wedge![cc']/)(d/=c/^c/ d/e/c/d/"_cresc." e/f/d/e/ f/g/e/f/ | %2
 g/a/g/c'/) (!>!f/g/f/c'/) (!>!e/f/e/c'/) (!>!d/e/d/c'/) | z/ g z f z e z d z/ | %4
!f! !wedge![cc'] (A/a/) (G/g/) (^^F/^^f/) (G/g/) (C/c/) (!>![CDF^Ad]2 | %5
 .[B,DGB]) z .[CD^^F] z .[B,DG] z .[^A,EG] z | .[B,DG] z .[CEG] z .[DG] z .[CD^A] z | %7
 .[B,DGB] z (!>![d-^ad']2 [dgb]) z (!>![D-^Ad]2 | %8
 [DGB]) (E/^^F/!<(! D/G/ =G/^A/ ^F/!<)!B/ =A/^B/!>(! ^G/c/=c/!>)!d/) | %9
!<(! c/(d/^B/c/ d/e/c/d/ e/f/d/e/ f/g/e/f/!<)! | %10
 g/a/g/c'/) (!>!f/g/f/c'/) (!>!e/f/e/c'/) (!>!d/e/d/c'/) | z/ g z f z d z ^c z/ | %12
!f! (A/c/a/f/ a/c'/a'/f'/ c'/a/f/c/!>(! A/F/^^C/A,/)!>)! |!p!!<(! (G2 F2 ^E2!<)! F2) | %14
!p!!<(! (G2 F2 ^E2!<)! F2) |!p!!<(! (^d2 c2 =c2)!<)!"_cresc." !>!^c2- | %16
 ([Ac]2 [G=c]2 [EG^c]) z!f! (!>![cc']2 | (=G/)^G/=F/=G/ ^G/^A/^^F/G/ A/B/G/A/ B/c/A/B/) | %18
 (c/d/c/^a/) (B/c/B/g/) (^A/B/A/^^f/) (G/A/G/g/) | .[E^Ac] z .[DGB] z .[C^^F^A] z .[B,DG] z | %20
 .[^A,E^^F] z .[B,DG] z .[CD^A] z (!>![dd']2 || %21
[K:Ab] =A/)B/^G/A/ B/c/!<(!A/B/ c/d/B/c/ d/e/c/d/!<)! | %22
 (e/f/e/c'/) (d/e/d/b/) (c/d/c/=a/) (B/c/B/b/) |!<(! .[_Gce] z .[FBd] z .[E=Ac] z .[DFB] z!<)! | %24
 .[_CF_A] z .[B,E_G] z .[B,_DF] z .[B,=C=E] z | %25
!p! (F/_G/!<(!=E/F/ G/A/F/G/ =G/A/^F/!<)!G/!f! [Aa]/!>(!B/!>)!G/A/- | %26
!p! A/B/!<(!=G/A/ =A/B/^G/A/ ^A/=B/^^G/!<)!A/!f! [B=b]/!>(!=c/^A/B/-)!>)! || %27
[K:E] (B/=c/^A/B/ c/_d/B/c/"_crescendo" ^c/=d/^B/c/ d/_e/c/d/ | %28
 ^d/e/^^c/d/ e/=f/d/e/ f/_g/e/f/ ^f/=g/f/e/ | %29
 d/e/^^c/d/) (!>!e/f/d/e/) (!>!a/b/g/a/) (!>!=d/e/^c/d/) | %30
 (!>!=g/a/f/g/) (!>!=c/=d/B/c/) (!>!f/g/^e/f/) (B/=c/^A/B/) | (!>!e2 !>!=d2 !>!=c2 !>!B2 | %32
 !>!A2 !>!=G2 !>!F2 !>!E2 | .[^G,B,=D^G]) z!p! !>![B,GB]4"_cresc." !>![GBg]2- | %34
 [GBg]2 .[Bgb]2!>(! (!>![gbg']3 [fbf']!>)! | %35
!f! !wedge![^eb^e']) z!>(! (b/c'/!>)!b/g'/)!>(! (g/^a/!>)!g/^e'/)!>(! (^e/f/!>)!e/=d'/) | %36
!>(! (=d/=e/!>)!d/b/)!>(! (B/c/!>)!B/g/)!>(! (G/^A/!>)!G/^e/)!>(! (^E/F/!>)!E/d/ | %37
 .[=E^Ac]) z!p! !>![CAc]4"_cresc." !>![Ac^a]2- | [Aca]2 .[c^ac']2 (!>![ac'^a']3 [gc'g'] | %39
!f! !wedge![^^fc'^^f']) z!>(! (c'/d'/!>)!c'/^a'/)!>(! (^a/^b/!>)!a/^^f'/)!>(! (^^f/g/!>)!f/e'/) | %40
[K:E]!>(! (e/^f/!>)!e/c'/)!>(! (c/d/!>)!c/^a/)!>(! (^A/^B/!>)!A/^^f/)!>(! (^^F/G/!>)!F/e/) | %41
!p! (D/d/e/"_cresc."d/ c/B/^A/G/) (^^F/G/F/e/)!>(! (E/^F/E/c/)!>)! | %42
!p! (D/!<(!d/e/d/!<)!"_cresc." c/B/^A/G/) (^^G/A/G/f/)!>(! (F/^G/F/d/)!>)! | %43
!p! (^E/!<(!^e/g/!<)!e/"_cresc." d/c/^B/^A/) (=B/c/B/g/)!>(! (G/^A/G/^e/)!>)! | %44
 (^B/"_cresc."c/B/=a/) (^^G/^A/G/f/) (c/d/c/^a/) (^A/^B/A/^^f/) | %45
!ff! (^B/d/^f/=a/ ^b/d'/f'/=a'/ ^b'/d'/e'/g'/ f'/b/c'/e'/ | %46
"_con forza" d'/f/g/=b/ a/^B/c/e/ d/F/G/=B/ A/F/=D/C/) | %47
 !wedge![G,^DFG]!p! (D/E/!<(! ^E/F/E/F/ ^^F/G/^F/=G/ ^G/A/)(D/=E/!<)! | %48
!<(! ^E/F/=E/=F/ ^F/=G/^E/F/ ^^F/^G/^F/=G/ ^G/A/)(D/=E/!<)! | %49
 ^E/F/=E/=F/ ^F/=G/^E/F/"_crescendo" ^^F/^G/^F/=G/ ^G/A/^^F/G/ | %50
 A/^A/G/=A/ ^A/B/=A/^A/ B/=c/A/B/ ^B/^c/=B/^B/ | c/d/=c/^c/ d/e/c/d/"_cresc." e/f/d/e/ f/g/e/f/ | %52
 g/a/g/c'/) (!>!f/g/f/c'/) (!>!e/f/e/c'/) (!>!d/e/d/c'/) | z/ g z f z e z d z/ | %54
!f! !wedge![cc'] (A/a/) (G/g/) (^^F/^^f/) (G/g/) (C/c/) (!>![CDF^Ad]2 | %55
!f! .[B,DGB]) z .[CD^^F] z .[B,DG] z .[^A,EG] z | .[B,DG] z .[CEG] z .[DG] z .[CD^A] z | %57
 .[B,DGB] z (!>![d-^ad']2 [dgb]) z (!>![D-^Ad]2 | %58
 [DGB]) (E/^^F/ D/G/ F/^A/ ^F/B/ =A/^B/ G/c/B/d/) |!<(! c/(d/^B/c/ d/e/c/d/ e/f/d/e/ f/g/e/f/!<)! | %60
 g/a/g/c'/) (!>!f/g/f/c'/) (!>!e/f/e/c'/) (!>!d/e/d/c'/) | z/ g z f z d z c z/ | %62
!ff! (A/c/a/f/ a/c'/a'/f'/ c'/a/f/c/!>(! A/F/=D/A,/)!>)! |!p!!<(! (!>!G2 F2 ^E2!<)! F2) | %64
!p!!<(! (G2 F2 ^E2!<)! !>!F2) |!p!!<(! (^d2 c2 ^B2!<)! !>!c2) |!p!"_cresc." (d2 c2 ^B2 !>![=Bc]2) | %67
 ([CFAc]2 [^EBc]2 [FAc]2 [FAd]2 | [EGe]2!<(! [G^Bf]2 [Gcg]2 [cda]2)!<)! | %69
!ff! !>![ceg]4!<(! !>![cegc']2 !>![egc'e']2!<)! | %70
!fff! !>![gc'e'g']2 !>![c'e'g'c'']2 !>![ac'd'a']2 !>![^B,FG^B]2 | %71
 !>!!wedge![CEGc] z!ff! (g/"_con più fuoco possibile"a/g/e'/) (^^f/g/f/e'/) (^f/g/=f/d'/) | %72
 (^e/f/e/=d'/) (=e/f/e/c'/) (^d/e/d/c'/) (d/e/d/^b/) | %73
 (c/d/c/c'/) (g/a/g/e'/) (^^f/g/f/e'/) (^f/g/=f/d'/) | %74
 (^e/f/e/=d'/) (=e/f/e/c'/) (^d/e/d/c'/) (d/e/d/^b/) | %75
!>(! (c/d/c/!>)!c'/)!>(! (g/a/g/!>)!e'/)!>(! (=g/_a/g/!>)!e'/)!>(! (^f/=g/f/!>)!^d'/) | %76
!>(! (^e/f/e/!>)!=d'/)!>(! (=e/f/e/!>)!c'/)!>(! (^d/e/d/!>)!^b/)!>(! (=d/_e/d/!>)!=b/) | %77
!>(! (c/=d/c/!>)!^a/)!>(! (^B/c/B/!>)!=a/)!>(! (=B/=c/B/!>)!g/)!>(! (^A/B/A/!>)!=g/) | %78
!>(! (=A/_B/A/!>)!^f/)!>(! (^G/A/G/!>)!^e/)!>(! (=G/_A/G/!>)!=e/)!>(! (^F/^G/F/!>)!d/) | %79
 !wedge![Ec] (G,/"_cresc."E/ C/C/"_assai"G/e/ c/c/g/e'/!8va(! c'/c'/g'/c''/ | %80
!ff! e''/g'/c'/c'/!8va)! e'/g/c/c/ e/G/C/C/ E/[I:staff +1]G,/C,/C,/ | %81
[I:staff -1] z4) [cegc'] z z z/[K:bass]!ff! [C,C]/ |[Q:1/4=130]"^." !fermata![C,C]8 |] %83
V:2
 G2 | x8 | x8 | (!>!c/g/e'/a/) (!>!=c/f/d'/g/) (!>!G/e/c'/f/) (!>!G/d/=c'/e/) | x8 | x8 | x8 | x8 | %8
 z ED =G^F A^G=c | x8 | x8 | (!>!c/g/e'/a/) (!>!=c/f/d'/g/) (!>!A/d/c'/e/) (!>!G/^c/=b/^^c/) | x8 | %13
 [B,^^C]6 [A,C]2 | [B,^^C]6 ^C2 | [FA]6 [=EG]2 | D4 z4 | x8 | x8 | x8 | x8 ||[K:Ab] x8 | x8 | x8 | %24
 x8 | C z D z D z z2 | E z E z E z z2 ||[K:E] F2 =G2 ^G2 =A2 | ^A2 B2 =c2 ^c2 | z2 B2 e2 A2 | %30
 =d2 =G2 =c2 F2 | B/=c/A/B/ A/B/=G/A/ G/A/F/G/ F/G/E/F/ | %32
 E/F/=D/E/ D/E/=C/D/ C/D/B,/C/ B,/C/A,/B,/ | x8 | x8 | x8 | x8 | x8 | x8 | x8 |[K:E] x8 | x8 | x8 | %43
 x8 | x8 | x8 | x8 | x8 | x8 | x8 | x8 | x8 | x8 | %53
 (!>!c/g/e'/a/) (!>!=c/f/d'/g/) (!>!G/e/c'/f/) (!>!G/d/=c'/e/) | x8 | x8 | x8 | x8 | x8 | x8 | x8 | %61
 (!>!c/g/e'/a/) (!>!^B/f/d'/g/) (!>!A/d/c'/e/) (!>!G/c/=b/=d/) | x8 | [B,=D]6 !>![A,D]2 | %64
 [B,=D]6 C2 | [FA]6 [EA]2 | [FA]6 [CG]2 | x8 | x8 | x8 | x8 | x8 | x8 | x8 | x8 | x8 | x8 | x8 | %78
 x8 | x6!8va(! x2 | x2!8va)! x6 | x15/2[K:bass] x/ | x8 |] %83
V:3
 ([G,,G,]2 | [C,,C,]) z[K:treble] .[FA] z .[EG] z .[DF] z | %2
 .[CE] z[K:bass] .[A,CF] z .[G,CE] z .[F,CD] z | %3
 !arpeggio!.[C,G,E] z !arpeggio!.[G,,F,^B,] z .[C,E,C] z .[G,,G,] z | %4
 [C,,C,] [A,,A,][G,,G,][^^F,,=G,][G,,^G,][C,,C,] ([D,,D,]/!>(!C,/=B,,/^A,,/)!>)! | %5
 (G,,/^A,,/^^F,,/G,,/ A,,/B,,/G,,/A,,/ B,,/C,/A,,/B,,/ C,/D,/B,,/C,/ | %6
 D,/E,/D,/G,/) (!>!C,/D,/C,/G,/) (!>!B,,/C,/B,,/G,/) (!>!^A,,/B,,/A,,/G,/) | %7
 z/ E, z E, z E, z E, z/ | .[G,,G,] (!>!CB,) (!>!ED) (!>!FE) ([G,DF] | %9
 .[CE]) z[K:treble] .[FA] z .[EG] z .[DF] z | .[CE] z[K:bass] .[A,CF] z .[G,CE] z .[F,CD] z | %11
 !arpeggio!.[C,G,E] z !arpeggio!.[G,,F,=C] z !arpeggio!.[A,,E,^C] z (!>![^E,-B,^^C^E]2 | %12
 .[E,A,CF]).[^^C,^^C].[^C,^C].[A,,A,] .[F,,F,].[C,,C,] !>![^^C,,^^C,]2 | %13
 (!>!^E,,/F,,/=E,,/^E,,/ !>!F,,/G,,/E,,/F,,/ !>!G,,/A,,/F,,/G,,/ !>!A,,/B,,/A,,/B,,/) | %14
 (=F,,/^F,,/E,,/^E,,/ F,,/G,,/=F,,/^F,,/ G,,/A,,/F,,/G,,/ A,,/B,,/A,,/B,,/) | %15
 (=C,/^C,/=B,,/^B,,/ C,/D,/B,,/C,/ D,/E,/C,/D,/ E,/F,/D,/E,/ | %16
 F,/G,/E,/F,/ G,/A,/G,/F,/ E,/D,/C,/_B,,/ A,,/G,,/F,,/E,,/ | .D,,) z .[B,D] z .[^A,C] z .[G,B,] z | %18
 .[D,^^F,^A,] z .[D,G,B,] z .[D,A,C] z (!>![E,E]2 | %19
 (^^F,,/)G,,/^E,,/F,,/ G,,/^A,,/F,,/G,,/ A,,/B,,/G,,/A,,/ B,,/C,/A,,/B,,/) | %20
 (C,/D,/C,/^A,/) (B,,/C,/B,,/G,/) (^A,,/B,,/A,,/^^F,/) (=A,,/_B,,/A,,/^F,/) || %21
[K:Ab] .[F,,F,] z .[DF] z .[CE] z .[B,D] z | [F,=A,C] z [F,B,D] z [F,CE] z (!>![_G,_G]2 | %23
 (=A,,/)B,,/^G,,/_A,,/ B,,/C,/A,,/B,,/ C,/D,/B,,/C,/ D,/E,/C,/D,/) | %24
 (=D,/E,/^C,/D,/ E,/F,/D,/E,/ F,/_G,/=E,/F,/ G,/A,/F,/G,/) | %25
 .[F,=A,] z .[_F,B,] z .[E,B,] z [_A,,_A,]2 | .[A,C] z .[=G,^C] z .[^F,C] z [=B,,=B,]2 || %27
[K:E] [B,D]2 [B,E]2 [B,^E]2 [B,F]2 |[K:treble] [B,^^F]2 [B,G]2 [B,=A]2 [B,^A]2 | %29
 [B,B]2 (=G/F/G/B,/ =C2) (F/^E/F/A,/ | B,2)[K:bass] (E/^D/E/=G,/ A,2) (D/^^C/D/F,/) | %31
 (!>!=G,/A,/F,/G,/ !>!F,/G,/E,/F,/ !>!E,/F,/=D,/E,/ !>!D,/E,/=C,/D,/ | %32
 !>!=C,/=D,/B,,/C,/ !>!B,,/C,/A,,/B,,/ !>!A,,/B,,/=G,,/A,,/ !>!G,,/A,,/F,,/G,,/ | %33
 .^E,,) z !>!^C,/=D,/^B,,/C,/ !>!C,/D,/B,,/C,/ !>!C,/D,/B,,/C,/ | %34
 C,/=D,/^B,,/C,/ C,/D,/B,,/C,/ C,/D,/B,,/C,/ C,/D,/B,,/C,/ | %35
 !wedge!=D, z[K:treble] (g/=d/B/^E/) (^e/B/G/=D/) (d/G/E/B,/) | %36
 (B/^E/=D/G,/)[K:bass] (G/=D/B,/^E,/) (^E/B,/G,/=D,/) (D/G,/E,/B,,/) | %37
 .^^F,, z !>!D,/E,/^^C,/D,/ !>!D,/E,/C,/D,/ !>!D,/E,/C,/D,/ | %38
 !>!D,/E,/^^C,/D,/ !>!D,/E,/C,/D,/ !>!D,/E,/C,/D,/ !>!D,/E,/C,/D,/ | %39
 !wedge!E, z[K:treble] (^^f/c/^A/E/) (e/A/^^F/C/) (c/F/E/^A,/) | %40
[K:E] (^A/E/C/^^F,/)[K:bass] (^^F/C/^A,/E,/) (E/A,/^^F,/C,/) (C/F,/E,/^A,,/) | %41
!<(! (B,,/D,/^^F,/G,/ ^A,/B,/C/D/)!<)!!>(! (E/A,/F,/C,/) (C/^^F,/E,/^A,,/)!>)! | %42
 (B,,/!<(!D,/^^F,/G,/ ^A,/B,/C/D/)!<)!!>(! (^F/^B,/^^G,/D,/) (D/^^G,/^F,/^B,,/)!>)! | %43
!<(! (C,/^E,/^^G,/^A,/ ^B,/C/D/^E/)!<)!!>(! (^G/=D/=B,/^E,/) (E/B,/G,/!>)!=D,/) | %44
 (=A/^D/^B,/F,/) (F/B,/^^G,/D,/) (^A/=E/C/^^F,/) (^^F/C/^A,/E,/) | %45
[K:treble] (=A2 G) z z2 z/ (^B/c/e/ | d/F/G/=B/ A/^B,/C/E/[K:bass] D/F,/G,/=B,/ A,/F,/=D,/C,/) | %47
 !wedge![^B,,,^B,,] z z2 z4 | !arpeggio!!>!.[G,,D,F,^B,]2 z2 z4 | %49
 !arpeggio!!>!.[G,,D,F,^B,]2 z2 z4 | z4 z2 (G,,/F,,/E,,/D,,/ | %51
 !wedge!C,,) z[K:treble] .[FA] z .[EG] z .[DF] z | .[CE] z[K:bass] .[A,CF] z .[G,CE] z .[F,CD] z | %53
 !arpeggio!.[C,G,E] z !arpeggio!.[G,,F,^B,] z .[C,E,C] z .[G,,G,] z | %54
 [C,,C,] [A,,A,][G,,G,][^^F,,=G,][G,,^G,][C,,C,] ([D,,D,]/!>(!C,/=B,,/^A,,/)!>)! | %55
 (G,,/^A,,/^^F,,/G,,/ A,,/B,,/G,,/A,,/ B,,/C,/A,,/B,,/ C,/D,/B,,/C,/ | %56
 D,/E,/D,/G,/) (!>!C,/D,/C,/G,/) (!>!B,,/C,/B,,/G,/) (!>!^A,,/B,,/A,,/^^F,/) | %57
 z/ E, z E, z E, z E, z/ | .[G,,G,] (!>!CB,) (!>!ED) (!>!FE) [G,DF] | %59
 .[CE] z[K:treble] .[FA] z .[EG] z .[DF] z | .[CE] z[K:bass] .[A,CF] z .[G,CE] z .[F,CD] z | %61
 .[C,F,E] z .[G,,F,^B,] z .[A,,E,C] z (!>![^E,-=B,=D^E]2 | %62
 .[E,A,CF]).[=D,=D].[C,C].[A,,A,] .[F,,F,].[C,,C,] !>![=D,,=D,]2 | %63
 (!>!^E,,/F,,/^^D,,/E,,/ !>!F,,/G,,/E,,/F,,/ !>!G,,/A,,/F,,/G,,/ !>!A,,/B,,/A,,/B,,/) | %64
 (^E,,/F,,/^^D,,/E,,/ F,,/G,,/E,,/F,,/ G,,/A,,/F,,/G,,/ A,,/B,,/A,,/B,,/) | %65
 (^B,,/C,/^^A,,/B,,/ C,/D,/B,,/C,/ D,/E,/C,/D,/ E,/F,/E,/F,/) | %66
 (^B,,/C,/^^A,,/B,,/ C,/D,/B,,/C,/ D,/E,/C,/D,/ ^E,/F,/^^D,/E,/ | %67
 F,/G,/^E,/F,/ G,/A,/F,/G,/ A,/B,/G,/A,/ ^B,/C/^^A,/B,/ | %68
 C/D/^B,/C/[K:treble] D/E/C/D/ E/F/D/E/ F/G/E/F/) | %69
 (G/A/G/F/ E/D/C/B,/[K:bass] A,/G,/F,/E,/ D,/C,/B,,/A,,/ | %70
 G,,/F,,/E,,/D,,/ C,,/B,,,/A,,,/G,,,/ !>![F,,,F,,]2) !>![G,,,G,,]2 | %71
 !>!!wedge![C,,,C,,] z !>![G,,G,]C,, !>![^A,,^A,]C,, !>![=A,,=A,]C,, | %72
 !>![G,,G,]C,, !>![^G,,=G,]C,, !>![G,,F,]C,, !>![G,,D,]C,, | %73
 !>![G,,E,]C,, !>![G,,G,]C,, !>![^A,,^A,]C,, !>![=A,,=A,]C,, | %74
 !>![G,,G,]C,, !>![^G,,=G,]C,, !>![G,,F,]C,, !>![G,,D,]C,, | %75
 !arpeggio![C,,G,,E,] z (G/^^F/G/G,/) (=G/^F/G/^G,/) (F/^E/F/G,/) | %76
 (^E/=E/^E/G,/) (=E/^D/E/G,/) (D/^^C/D/G,/) (=D/^C/D/G,/) | %77
 (C/^B,/C/G,,/) (^B,/=B,/^B,/G,,/) (=B,/^A,/B,/G,,/) (A,/^^G,/A,/^G,,/) | %78
 (=A,/G,/A,/G,,/) (G,/^^F,/G,/G,,/) (=G,/^F,/G,/^G,,/) (=F,/^E,/F,/G,,/) | %79
!ped! !arpeggio!!wedge![C,,G,,E,] z z2 z4 | !arpeggio!!wedge![C,G,E] z z2 z4 | %81
"_m. g." C,, z z2 !arpeggio![C,G,E] z z z/ [C,,,C,,]/ | !fermata![C,,,C,,]8!ped-up! |] %83
V:4
 x2 | x2[K:treble] x6 | x2[K:bass] x6 | x8 | x8 | x8 | x8 | %7
 (!>!G,,/E,/B,/D,/) (^^F,,/E,/^A,/D,/) (G,,/E,/B,/D,/) (F,,/E,/A,/D,/) | x8 | x2[K:treble] x6 | %10
 x2[K:bass] x6 | x8 | x8 | x8 | x8 | x8 | x8 | x8 | x8 | x8 | x8 ||[K:Ab] x8 | x8 | x8 | x8 | x8 | %26
 x8 ||[K:E] x8 |[K:treble] x8 | x8 | x2[K:bass] x6 | x8 | x8 | x8 | x8 | x2[K:treble] x6 | %36
 x2[K:bass] x6 | x8 | x8 | x2[K:treble] x6 |[K:E] x2[K:bass] x6 | x8 | x8 | x8 | x8 | %45
[K:treble] !>![G,D^F]2- [G,DF] z z2 z2 | x4[K:bass] x4 | x8 | x8 | x8 | x8 | x2[K:treble] x6 | %52
 x2[K:bass] x6 | x8 | x8 | x8 | x8 | %57
 (!>!G,,/E,/B,/D,/) (^^F,,/E,/^A,/D,/) (G,,/E,/B,/D,/) (F,,/E,/A,/D,/) | x8 | x2[K:treble] x6 | %60
 x2[K:bass] x6 | x8 | x8 | x8 | x8 | x8 | x8 | x8 | x2[K:treble] x6 | x4[K:bass] x4 | x8 | x8 | %72
 x8 | x8 | x8 | x8 | x8 | x8 | x8 | x8 | x8 | x8 | x8 |] %83

